svgs/thin/left-from-line.svg

<svg xmlns="http://www.w3.org/2000/svg" viewBox="0 0 448 512"><!--! Font Awesome Pro 6.0.0-alpha3 by @fontawesome - https://fontawesome.com License - https://fontawesome.com/license (Commercial License) --><path d="M448 440V72C448 67.58 444.4 64 440 64S432 67.58 432 72v368c0 4.418 3.582 8 8 8S448 444.4 448 440zM191.8 391.1v-72h128.1c17.69 0 32.04-14.33 32.04-32v-64c0-17.67-14.35-32-32.04-32H191.8V119.1c0-9.578-5.708-18.25-14.51-22.05C168.5 94.17 158.3 95.96 151.3 102.5L7.201 238.5C2.4 243.1 0 249.5 0 256s2.4 12.92 7.201 17.45l144.1 136c6.973 6.578 17.2 8.375 26 4.594C186.1 410.3 191.8 401.6 191.8 391.1zM162.3 397.8l-144.1-135.1C16.82 260.5 16 258.4 16 256s.8164-4.527 2.184-5.816l144.1-135.1c2.332-2.201 5.75-2.801 8.686-1.541C173.9 113.9 175.8 116.8 175.8 120V208h144.1c8.836 0 16.02 7.178 16.02 16v64c0 8.822-7.188 16-16.02 16H175.8v88c0 3.197-1.902 6.084-4.826 7.346C168 400.6 164.6 400 162.3 397.8z"/></svg>

<svg xmlns="http://www.w3.org/2000/svg" viewBox="0 0 448 512"><!-- Font Awesome Pro 6.0.0-alpha2 by @fontawesome - https://fontawesome.com License - https://fontawesome.com/license (Commercial License) --><path d="M448 440V72C448 67.582 444.418 64 440 64S432 67.582 432 72V440C432 444.418 435.582 448 440 448S448 444.418 448 440ZM191.818 392V320H319.908C337.596 320 351.932 305.672 351.932 288V224C351.932 206.326 337.596 192 319.908 192H191.818V120C191.818 110.422 186.109 101.75 177.307 97.953C168.504 94.172 158.277 95.969 151.305 102.547L7.201 238.547C2.4 243.078 0 249.539 0 256S2.4 268.922 7.201 273.453L151.305 409.453C158.277 416.031 168.504 417.828 177.307 414.047C186.109 410.25 191.818 401.578 191.818 392ZM162.287 397.816L18.184 261.818C16.816 260.527 16 258.352 16 256S16.816 251.473 18.184 250.184L162.285 114.186C164.617 111.984 168.035 111.385 170.971 112.645C173.916 113.916 175.818 116.803 175.818 120V208H319.908C328.744 208 335.932 215.178 335.932 224V288C335.932 296.822 328.744 304 319.908 304H175.818V392C175.818 395.197 173.916 398.084 170.992 399.346C168.035 400.615 164.617 400.016 162.287 397.816Z"/></svg>
